templates/main/source/images/gallery-images.svg

<?xml version="1.0" encoding="utf-8"?>
<svg width="64px" height="64px" viewBox="0 0 64 64" version="1.1" xmlns:xlink="http://www.w3.org/1999/xlink" xmlns="http://www.w3.org/2000/svg">
  <desc>Created with Lunacy</desc>
  <defs>
    <path d="M2.999 0L61.001 0Q61.1483 0 61.295 0.014441Q61.4416 0.028882 61.5861 0.0576249Q61.7306 0.0863679 61.8716 0.129136Q62.0125 0.171904 62.1487 0.228285Q62.2848 0.284667 62.4147 0.354118Q62.5446 0.42357 62.6671 0.505423Q62.7897 0.587276 62.9035 0.680742Q63.0174 0.774208 63.1216 0.878387Q63.2258 0.982566 63.3193 1.09645Q63.4127 1.21034 63.4946 1.33284Q63.5764 1.45535 63.6459 1.58528Q63.7153 1.71522 63.7717 1.85133Q63.8281 1.98745 63.8709 2.12844Q63.9136 2.26942 63.9424 2.41392Q63.9711 2.55843 63.9856 2.70505Q64 2.85167 64 2.999L64 61.001Q64 61.1483 63.9856 61.295Q63.9711 61.4416 63.9424 61.5861Q63.9136 61.7306 63.8709 61.8716Q63.8281 62.0125 63.7717 62.1487Q63.7153 62.2848 63.6459 62.4147Q63.5764 62.5446 63.4946 62.6671Q63.4127 62.7897 63.3193 62.9035Q63.2258 63.0174 63.1216 63.1216Q63.0174 63.2258 62.9035 63.3193Q62.7897 63.4127 62.6672 63.4946Q62.5447 63.5764 62.4147 63.6459Q62.2848 63.7153 62.1487 63.7717Q62.0125 63.8281 61.8716 63.8709Q61.7306 63.9136 61.5861 63.9424Q61.4416 63.9711 61.2949 63.9856Q61.1483 64 61.001 64L2.999 64Q2.85167 64 2.70505 63.9856Q2.55842 63.9711 2.41392 63.9424Q2.26942 63.9136 2.12844 63.8709Q1.98745 63.8281 1.85133 63.7717Q1.71522 63.7153 1.58528 63.6459Q1.45535 63.5764 1.33284 63.4946Q1.21034 63.4127 1.09645 63.3193Q0.982566 63.2258 0.878387 63.1216Q0.774208 63.0174 0.680742 62.9035Q0.587276 62.7897 0.505423 62.6672Q0.42357 62.5447 0.354118 62.4147Q0.284667 62.2848 0.228285 62.1487Q0.171904 62.0125 0.129136 61.8716Q0.0863679 61.7306 0.0576249 61.5861Q0.028882 61.4416 0.014441 61.2949Q0 61.1483 0 61.001L0 2.999Q0 2.85167 0.014441 2.70505Q0.028882 2.55842 0.0576249 2.41392Q0.0863679 2.26942 0.129136 2.12844Q0.171904 1.98745 0.228285 1.85133Q0.284667 1.71522 0.354118 1.58528Q0.42357 1.45535 0.505423 1.33284Q0.587276 1.21034 0.680742 1.09645Q0.774208 0.982566 0.878387 0.878387Q0.982566 0.774208 1.09645 0.680742Q1.21034 0.587276 1.33284 0.505423Q1.45535 0.42357 1.58528 0.354118Q1.71522 0.284667 1.85133 0.228285Q1.98745 0.171904 2.12844 0.129136Q2.26942 0.0863679 2.41392 0.0576249Q2.55843 0.028882 2.70505 0.014441Q2.85167 0 2.999 0L2.999 0Z" id="path_1" />
    <clipPath id="clip_1">
      <use xlink:href="#path_1" />
    </clipPath>
  </defs>
  <g id="f309746781ea203f47c5c49a9eae0e2b">
    <g id="Rectangle">
      <use stroke="none" fill="#FFFFFF" xlink:href="#path_1" />
      <g clip-path="url(#clip_1)">
        <use xlink:href="#path_1" fill="none" stroke="#666666" stroke-width="4" />
      </g>
    </g>
    <path d="M29.9413 7.74933L30.4173 8.708L30.4175 8.70856C30.4607 8.79425 34.9794 17.776 31.6106 25.8227L31.6053 25.832C31.6093 25.8267 31.6053 25.8373 31.5826 25.8907C30.2426 29.1747 27.8799 31.6467 25.5293 33.4307C23.2119 35.1907 20.8053 37.26 19.5519 37.7813L19.5506 37.78L18.5373 37.4493C18.5013 37.4373 6.08927 33.4853 1.7306 23.1067L1.7306 23.1027C1.72309 23.083 1.72153 23.0791 1.72173 23.079L1.7226 23.08L1.71327 23.06C1.70415 23.0387 1.70504 23.0405 1.7095 23.0497C1.71091 23.0525 1.71268 23.0562 1.7146 23.06L1.71993 23.0733L1.71593 23.0613L1.71593 23.06L1.71193 23.0507L1.71327 23.0507L1.69593 23.0147L1.69327 23.0147C-2.7654 12.6813 2.98927 0.998667 3.0066 0.964L3.47193 0L4.48793 0.332C4.52127 0.342667 15.6546 3.90133 20.5306 13.1027C24.4146 9.58933 28.9173 8.09467 28.9319 8.08933L29.9413 7.74933ZM3.99327 22.1573L3.99193 22.1587L3.97193 22.112L3.9626 22.092L3.9466 22.0533L3.94393 22.0467L3.94527 22.0467C0.667933 14.4453 3.58127 5.92 4.76527 3.04133C7.6586 4.18267 15.8253 7.99067 19.0293 15.6227C19.0706 15.7213 19.0706 15.716 19.0599 15.6867L19.0706 15.7147L19.074 15.7231L19.0739 15.7232C19.0733 15.7217 19.0726 15.7207 19.0733 15.7227L19.0739 15.7233L19.0739 15.7232C19.0746 15.7247 19.0753 15.7267 19.0746 15.7267C19.0746 15.7267 19.0706 15.72 19.0773 15.7347C19.2653 16.168 19.4253 16.604 19.5733 17.0413C19.6199 17.1813 19.6626 17.3227 19.7053 17.464C19.7973 17.7587 19.8813 18.0547 19.9573 18.3507C20.0013 18.5227 20.0439 18.6947 20.0826 18.8653C20.1426 19.1307 20.1933 19.396 20.2399 19.6613C20.2746 19.8453 20.3119 20.0293 20.3399 20.212C20.3786 20.468 20.4053 20.7227 20.4346 20.9773C20.4826 21.4 20.5186 21.8213 20.5399 22.24C20.5466 22.352 20.5559 22.464 20.5599 22.576C20.5706 22.8893 20.5759 23.2 20.5759 23.5093C20.5759 23.572 20.5759 23.636 20.5746 23.6987C20.5706 24.032 20.5639 24.3613 20.5479 24.6867C20.3773 28.148 19.5213 31.2213 18.8106 33.256L8.17327 11.2307L16.7893 34.112C13.2119 32.476 6.75993 28.744 3.99327 22.1573ZM19.074 15.7231L19.0746 15.724L19.0777 15.7314L19.0761 15.7283L19.0759 15.728L19.074 15.7231ZM29.3493 24.88L29.3493 24.8813C29.3668 24.8415 29.3618 24.8511 29.353 24.8676C29.3518 24.8698 29.3506 24.8722 29.3493 24.8747C31.6639 19.3387 29.6453 13.192 28.6746 10.812C27.1333 11.4627 24.1493 12.9387 21.6079 15.444C21.7666 15.8533 21.9079 16.2653 22.0373 16.6773C22.0546 16.7333 22.0666 16.788 22.0839 16.844C22.2506 17.396 22.3906 17.9493 22.5093 18.5013C22.5293 18.596 22.5533 18.6907 22.5719 18.7853C22.6879 19.3667 22.7799 19.9453 22.8479 20.5227C22.8586 20.6133 22.8679 20.704 22.8786 20.7947C23.0093 22.0187 23.0453 23.2253 23.0053 24.3973C23.0039 24.428 23.0039 24.4587 23.0026 24.4893C22.9986 24.5933 22.9986 24.6987 22.9933 24.8027C22.9826 25.0027 22.9533 25.188 22.9399 25.3853C22.9066 25.8573 22.8666 26.3227 22.8133 26.7787C22.7799 27.0667 22.7439 27.348 22.7026 27.628C22.6386 28.0653 22.5666 28.4867 22.4906 28.9027C22.4466 29.1373 22.4079 29.3773 22.3613 29.604C22.2399 30.1827 22.1106 30.7347 21.9733 31.2613C21.9039 31.5253 21.8373 31.7613 21.7666 32.0093C21.6826 32.3027 21.6013 32.588 21.5159 32.86C21.4826 32.9733 21.4479 33.1067 21.4119 33.2147C22.2426 32.7453 23.1493 32.172 24.0533 31.4853C26.1053 29.9267 28.1639 27.784 29.3106 24.9707C29.3426 24.8893 29.3386 24.904 29.3279 24.932L29.3359 24.9173L29.3493 24.8853L29.3466 24.884C29.3426 24.8987 29.3266 24.932 29.3466 24.8827L29.3493 24.88Z" transform="translate(14.66602 13.33301)" id="Fill-5" fill="#ba1212" fill-rule="evenodd" stroke="none" />
  </g>
</svg>

<svg width="64" height="64" viewBox="0 0 64 64" xmlns:xlink="http://www.w3.org/1999/xlink" xmlns="http://www.w3.org/2000/svg"><defs><clipPath id="clip_1"><use xlink:href="#path_1"/></clipPath><path d="M2.999 0h58.002q.147 0 .294.014.147.015.291.044.145.028.286.071.14.043.277.1.136.056.266.125.13.07.252.151.123.082.236.176.114.093.219.197.104.105.197.218.094.114.176.237.081.122.15.252.07.13.127.266.056.136.099.277.043.141.071.286.03.144.044.291.014.147.014.294v58.002q0 .147-.014.294-.015.147-.044.291-.028.145-.071.286-.043.14-.1.277-.056.136-.125.266-.07.13-.151.252-.082.123-.176.236-.093.114-.197.219-.105.104-.218.197-.114.094-.237.176-.122.081-.252.15-.13.07-.266.127-.136.056-.277.099-.141.043-.286.071-.144.03-.291.044Q61.148 64 61 64H2.999q-.147 0-.294-.014-.147-.015-.291-.044-.145-.028-.286-.071-.14-.043-.277-.1-.136-.056-.266-.125-.13-.07-.252-.151-.123-.082-.237-.176-.113-.093-.218-.197-.104-.105-.197-.218-.094-.114-.176-.237-.081-.122-.15-.252-.07-.13-.127-.266-.056-.136-.099-.277-.043-.141-.071-.286-.03-.144-.044-.291Q0 61.148 0 61V2.999q0-.147.014-.294.015-.147.044-.291.028-.145.071-.286.043-.14.1-.277.056-.136.125-.266.07-.13.151-.252.082-.123.176-.237Q.774.983.878.878q.105-.104.218-.197.114-.094.237-.176.122-.081.252-.15.13-.07.266-.127.136-.056.277-.099.141-.043.286-.071.144-.03.291-.044Q2.852 0 2.999 0z" id="path_1"/></defs><g id="f309746781ea203f47c5c49a9eae0e2b"><g id="Rectangle"><use fill="#FFF" xlink:href="#path_1"/><g clip-path="url(#clip_1)"><use xlink:href="#path_1" fill="none" stroke="#666" stroke-width="4"/></g></g><path d="M29.941 7.75l.476.958c.044.086 4.562 9.068 1.194 17.115l-.006.009c.004-.005 0 .005-.022.059-1.34 3.284-3.703 5.756-6.054 7.54-2.317 1.76-4.724 3.829-5.977 4.35l-.001-.001-1.014-.33c-.036-.013-12.448-3.965-16.806-14.343v-.004l-.01-.024.002.001-.01-.02-.004-.01.006.01.005.013-.004-.012v-.001l-.004-.01h.001l-.017-.035h-.003C-2.765 12.68 2.99.999 3.007.964L3.472 0l1.016.332c.033.01 11.167 3.57 16.043 12.77 3.884-3.513 8.386-5.007 8.4-5.013l1.01-.34zM3.993 22.156l-.001.002-.02-.047-.01-.02-.015-.039-.003-.006h.001C.668 14.445 3.581 5.92 4.765 3.04c2.894 1.142 11.06 4.95 14.264 12.582.042.098.042.093.03.064l.012.028.003.008c0-.001-.001-.002 0 0v.004l.003.008a16.767 16.767 0 01.628 1.729 17.991 17.991 0 01.535 2.197c.035.184.072.368.1.551.039.256.065.51.095.765.048.423.084.844.105 1.263.007.112.016.224.02.336.01.313.016.624.016.933l-.001.19c-.004.333-.011.662-.027.988-.17 3.461-1.027 6.534-1.737 8.569L8.173 11.231l8.616 22.881c-3.577-1.636-10.03-5.368-12.796-11.955zm15.081-6.434v.001l.004.007-.002-.003-.002-.005zm10.275 9.157v.001c.018-.04.013-.03.004-.013l-.004.007c2.315-5.536.296-11.683-.674-14.063-1.542.65-4.526 2.127-7.067 4.632.159.41.3.821.43 1.233.017.056.029.111.046.167.167.552.307 1.105.425 1.657.02.095.044.19.063.284.116.582.208 1.16.276 1.738l.03.272c.131 1.224.167 2.43.127 3.602l-.002.092c-.004.104-.004.21-.01.314-.01.2-.04.385-.053.582a30.543 30.543 0 01-.237 2.243c-.064.437-.136.859-.212 1.275-.044.234-.083.474-.13.701a35.29 35.29 0 01-.388 1.657 47.22 47.22 0 01-.457 1.599c-.033.113-.068.247-.104.355a23.44 23.44 0 002.641-1.73c2.052-1.558 4.11-3.701 5.258-6.514a.351.351 0 01.017-.039l.008-.015.013-.032-.002-.001c-.004.015-.02.048 0-.001l.002-.003z" transform="translate(14.666 13.333)" id="Fill-5" fill="#ba1212" fill-rule="evenodd" stroke="none"/></g></svg>
